SVG_Azure_All/SAP HANA on Azure.svg

<?xml version="1.0" encoding="UTF-8" standalone="no"?>
<!-- Generated by Microsoft Visio, SVG Export SAP HANA on Azure.svg Page-1 -->

<svg
   xmlns:dc="http://purl.org/dc/elements/1.1/"
   xmlns:cc="http://creativecommons.org/ns#"
   xmlns:rdf="http://www.w3.org/1999/02/22-rdf-syntax-ns#"
   xmlns:svg="http://www.w3.org/2000/svg"
   xmlns="http://www.w3.org/2000/svg"
   xmlns:sodipodi="http://sodipodi.sourceforge.net/DTD/sodipodi-0.dtd"
   xmlns:inkscape="http://www.inkscape.org/namespaces/inkscape"
   width="0.78736001in"
   height="0.39370158in"
   viewBox="0 0 56.689989 28.346561"
   xml:space="preserve"
   class="st4"
   version="1.1"
   id="svg36"
   sodipodi:docname="SAP HANA on Azure.svg"
   style="font-size:12px;overflow:visible;color-interpolation-filters:sRGB;fill:none;fill-rule:evenodd;stroke-linecap:square;stroke-miterlimit:3"
   inkscape:version="0.92.5 (2060ec1f9f, 2020-04-08)"><metadata
   id="metadata42"><rdf:RDF><cc:Work
       rdf:about=""><dc:format>image/svg+xml</dc:format><dc:type
         rdf:resource="http://purl.org/dc/dcmitype/StillImage" /></cc:Work></rdf:RDF></metadata><defs
   id="defs40" /><sodipodi:namedview
   pagecolor="#ffffff"
   bordercolor="#666666"
   borderopacity="1"
   objecttolerance="10"
   gridtolerance="10"
   guidetolerance="10"
   inkscape:pageopacity="0"
   inkscape:pageshadow="2"
   inkscape:window-width="640"
   inkscape:window-height="480"
   id="namedview38"
   showgrid="false"
   inkscape:zoom="2.3725881"
   inkscape:cx="37.795225"
   inkscape:cy="4.3784725"
   inkscape:window-x="0"
   inkscape:window-y="0"
   inkscape:window-maximized="0"
   inkscape:current-layer="svg36" />
	<style
   type="text/css"
   id="style2">
	<![CDATA[
		.st1 {fill:#0072c6;stroke:none;stroke-linecap:butt;stroke-width:12.24}
		.st2 {fill:#ffffff}
		.st3 {stroke:none;stroke-linecap:butt;stroke-width:12.24}
		.st4 {fill:none;fill-rule:evenodd;font-size:12px;overflow:visible;stroke-linecap:square;stroke-miterlimit:3}
	]]>
	</style>

	<g
   id="g34"
   transform="translate(-12.24,-12.238396)">
		<title
   id="title4">Page-1</title>
		<g
   id="group1802-1"
   transform="translate(12.24,-34.0157)">
			<title
   id="title6">SAP HANA on Azure</title>
			<g
   id="group1803-2">
				<title
   id="title8"> Artboard 5</title>
				<g
   id="shape1804-3"
   transform="translate(0,-0.00590428)">
					<title
   id="title10">Sheet.1804</title>
					<path
   d="M 0,74.6 H 28.65 L 56.69,46.26 H 0 Z"
   class="st1"
   id="path12"
   inkscape:connector-curvature="0"
   style="fill:#0072c6;stroke:none;stroke-width:12.23999977;stroke-linecap:butt" />
				</g>
				<g
   id="shape1805-5"
   transform="translate(1.33228,-5.60789)">
					<title
   id="title15">Sheet.1805</title>
					<path
   d="M 31.39,57.76 H 26.06 V 70.43 L 21.4,57.75 H 16.78 L 12.8,68.36 C 12.38,65.69 9.62,64.76 7.44,64.07 6,63.61 4.48,62.93 4.49,62.18 4.51,61.57 5.31,61 6.91,61.08 a 8.71417,8.71236 0 0 1 3.9,1.05 l 1.85,-3.22 A 14.3882,14.3852 -180 0 0 6.62,57.48 H 6.61 A 7.33465,7.33312 -180 0 0 1.28,59.42 4.49528,4.49434 -180 0 0 0,62.53 4.17756,4.17669 -180 0 0 1.83,66.25 c 1.11,0.75 2.34,1.31 3.63,1.66 1.47,0.46 2.68,0.86 2.67,1.71 A 1.2378,1.23754 0 0 1 7.78,70.45 2.35276,2.35227 0 0 1 6.06,70.99 7.36181,7.36028 0 0 1 1.65,69.73 L 0,73 a 12.3035,12.301 -180 0 0 6.04,1.6 h 0.27 a 7.27677,7.27526 -180 0 0 4.59,-1.54 c 0.07,-0.05 0.13,-0.11 0.2,-0.16 l -0.54,1.42 h 4.84 l 0.82,-2.47 a 8.80157,8.79974 -180 0 0 2.84,0.45 8.93622,8.93436 -180 0 0 2.78,-0.42 l 0.79,2.44 h 7.89 V 69.2 h 1.73 c 4.16,0 6.62,-2.12 6.62,-5.67 0,-3.96 -2.39,-5.77 -7.48,-5.77 z M 19.07,68.6 a 4.81299,4.81199 0 0 1 -1.71,-0.3 l 1.69,-5.33 h 0.03 l 1.66,5.35 A 5.04331,5.04226 0 0 1 19.07,68.6 Z M 31.7,65.54 h -1.17 v -4.29 h 1.17 c 1.57,0 2.82,0.52 2.82,2.12 0,1.65 -1.25,2.17 -2.82,2.17 z"
   class="st2"
   id="path17"
   inkscape:connector-curvature="0"
   style="fill:#ffffff" />
					<path
   d="M 31.39,57.76 H 26.06 V 70.43 L 21.4,57.75 H 16.78 L 12.8,68.36 C 12.38,65.69 9.62,64.76 7.44,64.07 6,63.61 4.48,62.93 4.49,62.18 4.51,61.57 5.31,61 6.91,61.08 a 8.71417,8.71236 0 0 1 3.9,1.05 l 1.85,-3.22 A 14.3882,14.3852 -180 0 0 6.62,57.48 H 6.61 A 7.33465,7.33312 -180 0 0 1.28,59.42 4.49528,4.49434 -180 0 0 0,62.53 4.17756,4.17669 -180 0 0 1.83,66.25 c 1.11,0.75 2.34,1.31 3.63,1.66 1.47,0.46 2.68,0.86 2.67,1.71 A 1.2378,1.23754 0 0 1 7.78,70.45 2.35276,2.35227 0 0 1 6.06,70.99 7.36181,7.36028 0 0 1 1.65,69.73 L 0,73 a 12.3035,12.301 -180 0 0 6.04,1.6 h 0.27 a 7.27677,7.27526 -180 0 0 4.59,-1.54 c 0.07,-0.05 0.13,-0.11 0.2,-0.16 l -0.54,1.42 h 4.84 l 0.82,-2.47 a 8.80157,8.79974 -180 0 0 2.84,0.45 8.93622,8.93436 -180 0 0 2.78,-0.42 l 0.79,2.44 h 7.89 V 69.2 h 1.73 c 4.16,0 6.62,-2.12 6.62,-5.67 0,-3.96 -2.39,-5.77 -7.48,-5.77 M 19.07,68.6 a 4.81299,4.81199 0 0 1 -1.71,-0.3 l 1.69,-5.33 h 0.03 l 1.66,5.35 A 5.04331,5.04226 0 0 1 19.07,68.6 M 31.7,65.54 h -1.17 v -4.29 h 1.17 c 1.57,0 2.82,0.52 2.82,2.12 0,1.65 -1.25,2.17 -2.82,2.17"
   class="st3"
   id="path19"
   inkscape:connector-curvature="0"
   style="stroke:none;stroke-width:12.23999977;stroke-linecap:butt" />
				</g>
				<g
   id="shape1806-8"
   transform="translate(34.8094)">
					<title
   id="title22">Sheet.1806</title>
					<path
   d="m 2,70.91 c 0.93,0 1.7,0.76 1.7,1.7 0,0.93 -0.77,1.7 -1.7,1.7 -0.94,0 -1.7,-0.77 -1.7,-1.7 0,-0.94 0.76,-1.7 1.7,-1.7 z m 0,-0.3 a 1.99606,1.99565 -180 1 0 0,3.99 1.99606,1.99565 -180 0 0 0,-3.99 z"
   class="st1"
   id="path24"
   inkscape:connector-curvature="0"
   style="fill:#0072c6;stroke:none;stroke-width:12.23999977;stroke-linecap:butt" />
				</g>
				<g
   id="shape1807-10"
   transform="translate(36.1843,-0.950589)">
					<title
   id="title27">Sheet.1807</title>
					<path
   d="M 0.99,73.68 A 0.543307,0.543194 -180 0 0 1.53685,73.140349 L 1.53,73.1 C 1.53,72.69 1.29,72.51 0.8,72.51 H 0 v 2.09 h 0.32 v -0.9 h 0.36 l 0.55,0.9 H 1.59 Z M 0.32,73.43 v -0.65 h 0.43 c 0.21,0 0.45,0.05 0.45,0.3 0,0.33 -0.24,0.35 -0.51,0.35 z"
   class="st1"
   id="path29"
   inkscape:connector-curvature="0"
   style="fill:#0072c6;stroke:none;stroke-width:12.23999977;stroke-linecap:butt" />
				</g>
			</g>
		</g>
	</g>
</svg>

<?xml version="1.0" encoding="UTF-8" standalone="no"?>
<!DOCTYPE svg PUBLIC "-//W3C//DTD SVG 1.1//EN" "http://www.w3.org/Graphics/SVG/1.1/DTD/svg11.dtd">
<!-- Generated by Microsoft Visio, SVG Export SAP HANA on Azure.svg Page-1 -->
<svg xmlns="http://www.w3.org/2000/svg" xmlns:xlink="http://www.w3.org/1999/xlink" xmlns:ev="http://www.w3.org/2001/xml-events"
		width="1.1274in" height="1.03614in" viewBox="0 0 81.1729 74.6022" xml:space="preserve" color-interpolation-filters="sRGB"
		class="st4">
	<style type="text/css">
	<![CDATA[
		.st1 {fill:#0072c6;stroke:none;stroke-linecap:butt;stroke-width:12.24}
		.st2 {fill:#ffffff}
		.st3 {stroke:none;stroke-linecap:butt;stroke-width:12.24}
		.st4 {fill:none;fill-rule:evenodd;font-size:12px;overflow:visible;stroke-linecap:square;stroke-miterlimit:3}
	]]>
	</style>

	<g>
		<title>Page-1</title>
		<g id="group1787-1" transform="translate(12.24,-34.0157)">
			<title>SAP HANA on Azure</title>
			<g id="group1788-2">
				<title> Artboard 5</title>
				<g id="shape1789-3" transform="translate(0,-0.00590428)">
					<title>Sheet.1789</title>
					<path d="M0 74.6 L28.65 74.6 L56.69 46.26 L0 46.26 L0 74.6 Z" class="st1"/>
				</g>
				<g id="shape1790-5" transform="translate(1.33228,-5.60789)">
					<title>Sheet.1790</title>
					<path d="M31.39 57.76 L26.06 57.76 L26.06 70.43 L21.4 57.75 L16.78 57.75 L12.8 68.36 C12.38 65.69 9.62 64.76
								 7.44 64.07 C6 63.61 4.48 62.93 4.49 62.18 C4.51 61.57 5.31 61 6.91 61.08 A8.71417 8.71236 0 0 1
								 10.81 62.13 L12.66 58.91 A14.3882 14.3852 -180 0 0 6.62 57.48 L6.61 57.48 A7.33465 7.33312 -180
								 0 0 1.28 59.42 A4.49528 4.49434 -180 0 0 0 62.53 A4.17756 4.17669 -180 0 0 1.83 66.25 C2.94 67 4.17
								 67.56 5.46 67.91 C6.93 68.37 8.14 68.77 8.13 69.62 A1.2378 1.23754 0 0 1 7.78 70.45 A2.35276 2.35227
								 0 0 1 6.06 70.99 A7.36181 7.36028 0 0 1 1.65 69.73 L0 73 A12.3035 12.301 -180 0 0 6.04 74.6 L6.31
								 74.6 A7.27677 7.27526 -180 0 0 10.9 73.06 C10.97 73.01 11.03 72.95 11.1 72.9 L10.56 74.32 L15.4
								 74.32 L16.22 71.85 A8.80157 8.79974 -180 0 0 19.06 72.3 A8.93622 8.93436 -180 0 0 21.84 71.88 L22.63
								 74.32 L30.52 74.32 L30.52 69.2 L32.25 69.2 C36.41 69.2 38.87 67.08 38.87 63.53 C38.87 59.57 36.48
								 57.76 31.39 57.76 ZM19.07 68.6 A4.81299 4.81199 0 0 1 17.36 68.3 L19.05 62.97 L19.08 62.97 L20.74
								 68.32 A5.04331 5.04226 0 0 1 19.07 68.6 ZM31.7 65.54 L30.53 65.54 L30.53 61.25 L31.7 61.25 C33.27
								 61.25 34.52 61.77 34.52 63.37 C34.52 65.02 33.27 65.54 31.7 65.54 L31.7 65.54 Z" class="st2"/>
					<path d="M31.39 57.76 L26.06 57.76 L26.06 70.43 L21.4 57.75 L16.78 57.75 L12.8 68.36 C12.38 65.69 9.62 64.76
								 7.44 64.07 C6 63.61 4.48 62.93 4.49 62.18 C4.51 61.57 5.31 61 6.91 61.08 A8.71417 8.71236 0 0 1
								 10.81 62.13 L12.66 58.91 A14.3882 14.3852 -180 0 0 6.62 57.48 L6.61 57.48 A7.33465 7.33312 -180
								 0 0 1.28 59.42 A4.49528 4.49434 -180 0 0 0 62.53 A4.17756 4.17669 -180 0 0 1.83 66.25 C2.94 67 4.17
								 67.56 5.46 67.91 C6.93 68.37 8.14 68.77 8.13 69.62 A1.2378 1.23754 0 0 1 7.78 70.45 A2.35276 2.35227
								 0 0 1 6.06 70.99 A7.36181 7.36028 0 0 1 1.65 69.73 L0 73 A12.3035 12.301 -180 0 0 6.04 74.6 L6.31
								 74.6 A7.27677 7.27526 -180 0 0 10.9 73.06 C10.97 73.01 11.03 72.95 11.1 72.9 L10.56 74.32 L15.4
								 74.32 L16.22 71.85 A8.80157 8.79974 -180 0 0 19.06 72.3 A8.93622 8.93436 -180 0 0 21.84 71.88 L22.63
								 74.32 L30.52 74.32 L30.52 69.2 L32.25 69.2 C36.41 69.2 38.87 67.08 38.87 63.53 C38.87 59.57 36.48
								 57.76 31.39 57.76M19.07 68.6 A4.81299 4.81199 0 0 1 17.36 68.3 L19.05 62.97 L19.08 62.97 L20.74
								 68.32 A5.04331 5.04226 0 0 1 19.07 68.6M31.7 65.54 L30.53 65.54 L30.53 61.25 L31.7 61.25 C33.27
								 61.25 34.52 61.77 34.52 63.37 C34.52 65.02 33.27 65.54 31.7 65.54" class="st3"/>
				</g>
				<g id="shape1791-8" transform="translate(34.8094,0)">
					<title>Sheet.1791</title>
					<path d="M2 70.91 C2.93 70.91 3.7 71.67 3.7 72.61 C3.7 73.54 2.93 74.31 2 74.31 C1.06 74.31 0.3 73.54 0.3 72.61
								 C0.3 71.67 1.06 70.91 2 70.91 ZM2 70.61 A1.99606 1.99565 -180 1 0 2 74.6 A1.99606 1.99565 -180 0
								 0 2 70.61 Z" class="st1"/>
				</g>
				<g id="shape1792-10" transform="translate(36.1843,-0.950589)">
					<title>Sheet.1792</title>
					<path d="M0.99 73.68 a0.543307 0.543194 -180 0 0 0.54685 -0.539651 L1.53 73.1 C1.53 72.69 1.29 72.51 0.8 72.51
								 L0 72.51 L0 74.6 L0.32 74.6 L0.32 73.7 L0.68 73.7 L1.23 74.6 L1.59 74.6 L0.99 73.68 ZM0.32 73.43
								 L0.32 72.78 L0.75 72.78 C0.96 72.78 1.2 72.83 1.2 73.08 C1.2 73.41 0.96 73.43 0.69 73.43 L0.32 73.43
								 Z" class="st1"/>
				</g>
			</g>
		</g>
	</g>
</svg>
